T: Susan MacLeod
M: 4/4
L: 1/8
K: Amaj
[2 a>ef<a e>ad<a | c>aB<a A2 ||[2 a>ef<a e>ad<a | c>aB<a A2 ||[2 a>ef<a e>ad<a | c>aB<a A2 ||
